public/logos/XP.svg

<?xml version="1.0" encoding="UTF-8"?>
<svg xmlns="http://www.w3.org/2000/svg" xmlns:xlink="http://www.w3.org/1999/xlink" width="146.1pt" height="56pt" viewBox="0 0 146.1 56" version="1.1">
<defs>
<clipPath id="clip1">
  <path d="M 115 19 L 146.101562 19 L 146.101562 56 L 115 56 Z M 115 19 "/>
</clipPath>
<clipPath id="clip2">
  <path d="M 115 10 L 146.101562 10 L 146.101562 47 L 115 47 Z M 115 10 "/>
</clipPath>
<clipPath id="clip3">
  <path d="M 115 0 L 146.101562 0 L 146.101562 37 L 115 37 Z M 115 0 "/>
</clipPath>
</defs>
<g id="surface1">
<g clip-path="url(#clip1)" clip-rule="nonzero">
<path style=" stroke:none;fill-rule:nonzero;fill:rgb(98.222351%,79.463196%,2.891541%);fill-opacity:1;" d="M 115.21875 36.054688 C 116.3125 35.382812 117.496094 34.796875 118.660156 33.957031 L 126.53125 28.292969 C 133.089844 23.863281 139.632812 19.945312 146.09375 19.96875 L 146.09375 24.484375 C 142.328125 24.484375 136.117188 26.863281 130.285156 31.0625 L 120.683594 37.984375 L 130.285156 44.902344 C 136.117188 49.105469 142.328125 51.480469 146.09375 51.480469 L 146.09375 56 C 139.632812 56.023438 133.089844 52.105469 126.53125 47.675781 L 118.660156 42.011719 C 117.496094 41.171875 116.3125 40.585938 115.21875 39.914062 L 115.21875 36.054688 "/>
</g>
<g clip-path="url(#clip2)" clip-rule="nonzero">
<path style=" stroke:none;fill-rule:nonzero;fill:rgb(28.738403%,16.398621%,56.762695%);fill-opacity:1;" d="M 115.21875 26.136719 C 116.3125 25.464844 117.496094 24.878906 118.660156 24.039062 L 126.53125 18.375 C 133.089844 13.945312 139.632812 10.023438 146.09375 10.050781 L 146.09375 14.566406 C 142.328125 14.566406 136.117188 16.945312 130.285156 21.144531 L 120.683594 28.066406 L 130.285156 34.984375 C 136.117188 39.183594 142.328125 41.5625 146.09375 41.5625 L 146.09375 46.082031 C 139.632812 46.105469 133.089844 42.183594 126.53125 37.757812 L 118.660156 32.089844 C 117.496094 31.253906 116.3125 30.667969 115.21875 29.996094 L 115.21875 26.136719 "/>
</g>
<path style=" stroke:none;fill-rule:nonzero;fill:rgb(28.738403%,16.398621%,56.762695%);fill-opacity:1;" d="M 9.371094 36.832031 C 6.460938 36.832031 4.523438 34.984375 4.523438 32.582031 C 4.523438 29.722656 6.878906 28.105469 11.03125 28.105469 C 12.878906 28.105469 14.816406 28.382812 16.753906 28.796875 C 16.660156 33.460938 13.570312 36.832031 9.371094 36.832031 Z M 11.355469 16.289062 C 7.109375 16.289062 3.554688 17.859375 1.386719 20.167969 L 3.460938 22.84375 C 5.445312 21.042969 7.847656 20.167969 10.386719 20.167969 C 13.984375 20.167969 16.292969 22.289062 16.707031 25.753906 C 14.722656 25.429688 12.785156 25.289062 10.894531 25.289062 C 3.96875 25.289062 0 28.015625 0 32.859375 C 0 37.0625 3.554688 40.292969 8.492188 40.292969 C 12.09375 40.292969 15 38.769531 17.078125 36.367188 L 17.167969 39.832031 L 21.601562 39.832031 L 21.601562 26.859375 C 21.601562 20.492188 17.539062 16.289062 11.355469 16.289062 Z M 58.457031 19.753906 C 61.730469 19.753906 64.457031 21.78125 65.285156 24.828125 C 65.425781 25.289062 65.515625 25.890625 65.5625 26.445312 L 51.347656 26.445312 C 51.945312 22.476562 54.667969 19.753906 58.457031 19.753906 Z M 70.222656 26.628906 C 69.53125 20.769531 64.5 16.289062 58.457031 16.289062 C 51.808594 16.289062 46.453125 21.644531 46.453125 28.289062 C 46.453125 34.9375 51.808594 40.292969 58.457031 40.292969 C 63.53125 40.292969 67.316406 37.984375 69.441406 34.523438 L 65.746094 32.628906 C 64.363281 34.753906 62.054688 36.183594 58.824219 36.183594 C 54.761719 36.183594 51.902344 33.324219 51.347656 29.398438 L 70.363281 29.398438 C 70.410156 28.476562 70.363281 27.644531 70.222656 26.628906 Z M 73.917969 39.832031 L 78.765625 39.832031 L 78.765625 7.519531 L 73.917969 7.519531 Z M 94.363281 35.675781 C 90.441406 35.675781 87.210938 32.351562 87.210938 28.289062 C 87.210938 24.183594 90.441406 20.90625 94.363281 20.90625 C 98.332031 20.90625 101.519531 24.183594 101.519531 28.289062 C 101.519531 32.351562 98.332031 35.675781 94.363281 35.675781 Z M 94.363281 40.292969 C 101.011719 40.292969 106.363281 34.890625 106.363281 28.289062 C 106.363281 21.644531 101.011719 16.289062 94.363281 16.289062 C 87.765625 16.289062 82.363281 21.644531 82.363281 28.289062 C 82.363281 34.890625 87.765625 40.292969 94.363281 40.292969 Z M 43.933594 16.703125 L 38.769531 16.703125 L 35.941406 34.242188 C 35.796875 35.070312 35.113281 35.488281 34.285156 35.488281 C 33.457031 35.488281 32.773438 35.070312 32.628906 34.242188 L 29.558594 16.703125 L 24.394531 16.703125 L 27.753906 35.027344 C 28.339844 38.257812 30.921875 40.242188 34.285156 40.242188 C 37.648438 40.242188 39.9375 38.257812 40.523438 35.027344 L 41.351562 30.6875 L 43.933594 16.703125 "/>
<g clip-path="url(#clip3)" clip-rule="nonzero">
<path style=" stroke:none;fill-rule:nonzero;fill:rgb(30.665588%,77.076721%,82.318115%);fill-opacity:1;" d="M 115.21875 16.085938 C 116.3125 15.414062 117.496094 14.828125 118.660156 13.988281 L 126.53125 8.324219 C 133.089844 3.898438 139.632812 -0.0234375 146.09375 0 L 146.09375 4.519531 C 142.328125 4.519531 136.117188 6.898438 130.285156 11.097656 L 120.683594 18.015625 L 130.285156 24.9375 C 136.117188 29.136719 142.328125 31.515625 146.09375 31.515625 L 146.09375 36.03125 C 139.632812 36.054688 133.089844 32.136719 126.53125 27.707031 L 118.660156 22.042969 C 117.496094 21.203125 116.3125 20.617188 115.21875 19.945312 L 115.21875 16.085938 "/>
</g>
</g>
</svg>

<svg xmlns="http://www.w3.org/2000/svg" width="194.8" height="56pt" viewBox="0 0 146.1 56"><defs><clipPath id="a"><path d="M115 19h31.102v37H115Zm0 0"/></clipPath><clipPath id="b"><path d="M115 10h31.102v37H115Zm0 0"/></clipPath><clipPath id="c"><path d="M115 0h31.102v37H115Zm0 0"/></clipPath></defs><g clip-path="url(#a)"><path d="M115.219 36.055c1.094-.672 2.277-1.258 3.441-2.098l7.871-5.664c6.559-4.43 13.102-8.348 19.563-8.324v4.515c-3.766 0-9.977 2.38-15.809 6.578l-9.601 6.922 9.601 6.918c5.832 4.203 12.043 6.578 15.809 6.578V56c-6.461.023-13.004-3.895-19.563-8.324l-7.87-5.664c-1.165-.84-2.349-1.426-3.442-2.098z" style="stroke:none;fill-rule:nonzero;fill:#facb07;fill-opacity:1"/></g><g clip-path="url(#b)"><path d="M115.219 26.137c1.094-.672 2.277-1.258 3.441-2.098l7.871-5.664c6.559-4.43 13.102-8.352 19.563-8.324v4.515c-3.766 0-9.977 2.38-15.809 6.579l-9.601 6.921 9.601 6.918c5.832 4.2 12.043 6.578 15.809 6.578v4.52c-6.461.023-13.004-3.898-19.563-8.324l-7.87-5.668c-1.165-.836-2.349-1.422-3.442-2.094z" style="stroke:none;fill-rule:nonzero;fill:#492a91;fill-opacity:1"/></g><path d="M9.371 36.832c-2.91 0-4.848-1.848-4.848-4.25 0-2.86 2.356-4.477 6.508-4.477 1.848 0 3.785.278 5.723.692-.094 4.664-3.184 8.035-7.383 8.035m1.984-20.543c-4.246 0-7.8 1.57-9.968 3.879l2.074 2.676c1.984-1.801 4.387-2.676 6.926-2.676 3.597 0 5.906 2.121 6.32 5.586a36 36 0 0 0-5.812-.465C3.969 25.29 0 28.016 0 32.86c0 4.203 3.555 7.434 8.492 7.434 3.602 0 6.508-1.523 8.586-3.926l.09 3.465h4.434V26.859c0-6.367-4.063-10.57-10.247-10.57m47.102 3.465c3.273 0 6 2.027 6.828 5.074.14.461.23 1.063.278 1.617H51.348c.597-3.968 3.32-6.691 7.109-6.691m11.766 6.875c-.692-5.86-5.723-10.34-11.766-10.34a11.98 11.98 0 0 0-12.004 12 11.98 11.98 0 0 0 12.004 12.004c5.074 0 8.86-2.309 10.984-5.77l-3.695-1.894c-1.383 2.125-3.691 3.555-6.922 3.555-4.062 0-6.922-2.86-7.476-6.786h19.015c.047-.921 0-1.753-.14-2.77m3.695 13.203h4.848V7.52h-4.848Zm20.445-4.156c-3.922 0-7.152-3.324-7.152-7.387 0-4.105 3.23-7.383 7.152-7.383 3.969 0 7.157 3.278 7.157 7.383 0 4.063-3.188 7.387-7.157 7.387m0 4.617c6.649 0 12-5.402 12-12.004 0-6.644-5.351-12-12-12-6.597 0-12 5.356-12 12 0 6.602 5.403 12.004 12 12.004m-50.43-23.59H38.77l-2.829 17.54c-.144.827-.828 1.245-1.656 1.245s-1.512-.418-1.656-1.246l-3.07-17.539h-5.164l3.359 18.324c.586 3.23 3.168 5.215 6.531 5.215s5.653-1.984 6.238-5.215l.829-4.34z" style="stroke:none;fill-rule:nonzero;fill:#492a91;fill-opacity:1"/><g clip-path="url(#c)"><path d="M115.219 16.086c1.094-.672 2.277-1.258 3.441-2.098l7.871-5.664C133.09 3.898 139.633-.023 146.094 0v4.52c-3.766 0-9.977 2.378-15.809 6.578l-9.601 6.918 9.601 6.922c5.832 4.199 12.043 6.578 15.809 6.578v4.515c-6.461.024-13.004-3.894-19.563-8.324l-7.87-5.664c-1.165-.84-2.349-1.426-3.442-2.098z" style="stroke:none;fill-rule:nonzero;fill:#4ec5d2;fill-opacity:1"/></g></svg>
